theme/img/cb-logo.svg

<svg width="210" height="26" viewBox="0 0 210 26" version="1.1" xmlns="http://www.w3.org/2000/svg" xmlns:xlink="http://www.w3.org/1999/xlink">
<title>Logo (horiz)</title>
<desc>Created using Figma</desc>
<g id="Canvas" transform="translate(8355 -457)">
<rect x="-8355" y="457" width="210" height="26" fill="#E5E5E5"/>
<clipPath id="clip-0" clip-rule="evenodd">
<path d="M -8435 411L -6995 411L -6995 1632L -8435 1632L -8435 411Z" fill="#FFFFFF"/>
</clipPath>
<g id="Desktop HD 2.1" clip-path="url(#clip-0)">
<path d="M -8435 411L -6995 411L -6995 1632L -8435 1632L -8435 411Z" fill="#FFFFFF"/>
<g id="Header">
<g id="Logo (horiz)">
<use xlink:href="#path0_fill" transform="matrix(3.50953 0 0 1 -8355 457)" fill="#4D4D4D"/>
</g>
</g>
</g>
</g>
<defs>
<path id="path0_fill" fill-rule="evenodd" d="M 3.01272 4.96503C 3.50385 4.96503 3.91623 5.68628 4.25015 7.13397L 4.25015 1.01917C 4.01446 0.669006 3.7899 0.412842 3.5762 0.245605C 3.3625 0.0835876 3.14517 0 2.92424 0C 2.53634 0 2.1657 0.256073 1.81203 0.76825C 1.45836 1.28564 1.14782 1.99649 0.880137 2.9111C 0.612451 3.82571 0.399025 4.91803 0.239304 6.17758C 0.0798607 7.44235 0 8.83258 0 10.3482C 0 11.8639 0.0809737 13.2593 0.243199 14.5398C 0.405147 15.8202 0.619964 16.9282 0.88765 17.8585C 1.15534 18.794 1.46476 19.5153 1.81565 20.0274C 2.16681 20.5449 2.53384 20.8009 2.917 20.8009C 3.10371 20.8009 3.29265 20.733 3.4841 20.6023C 3.67554 20.4717 3.88201 20.2678 4.10295 19.9908L 4.25015 19.8079L 4.25015 13.7454C 3.88201 15.1408 3.46684 15.8359 3.00521 15.8359C 2.79429 15.8359 2.59784 15.6948 2.41613 15.4178C 2.23443 15.1407 2.0761 14.754 1.94086 14.268C 1.80591 13.7819 1.70045 13.207 1.6242 12.5432C 1.54796 11.8795 1.51012 11.1583 1.51012 10.3743C 1.51012 9.60602 1.54796 8.89526 1.6242 8.23151C 1.70045 7.56775 1.8048 6.99808 1.93725 6.51724C 2.06998 6.04166 2.22831 5.66016 2.41252 5.38318C 2.59645 5.10617 2.79651 4.96503 3.01272 4.96503ZM 6.62955 12.5694C 6.54607 11.9057 6.50433 11.1844 6.50433 10.4005C 6.50433 9.61652 6.54607 8.89526 6.62955 8.23151C 6.71303 7.56775 6.82572 6.99289 6.96819 6.50684C 7.11066 6.02078 7.2765 5.63925 7.46544 5.36746C 7.65466 5.10092 7.85473 4.96503 8.06593 4.96503C 8.27685 4.96503 8.4772 5.10092 8.66614 5.36746C 8.85507 5.63925 9.02231 6.02078 9.167 6.50684C 9.31198 6.99289 9.42606 7.56775 9.50954 8.23151C 9.59302 8.89526 9.63476 9.61652 9.63476 10.4005C 9.63476 11.1844 9.59302 11.9057 9.50954 12.5694C 9.42606 13.2279 9.31198 13.808 9.167 14.2941C 9.02231 14.7801 8.85507 15.1617 8.66614 15.4282C 8.4772 15.7 8.27685 15.8359 8.06593 15.8359C 7.85473 15.8359 7.65466 15.7 7.46544 15.4282C 7.2765 15.1617 7.11066 14.7801 6.96819 14.2941C 6.82572 13.808 6.71303 13.2279 6.62955 12.5694ZM 5.22267 6.30826C 5.07046 7.57303 4.99421 8.93707 4.99421 10.4005C 4.99421 11.8638 5.07046 13.2279 5.22267 14.4875C 5.37487 15.7522 5.58607 16.855 5.85599 17.7958C 6.12618 18.7365 6.44896 19.4734 6.82461 20.0013C 7.20026 20.5344 7.61403 20.8009 8.06593 20.8009C 8.51281 20.8009 8.9252 20.5344 9.30335 20.0013C 9.68151 19.4734 10.0068 18.7365 10.2795 17.7958C 10.5519 16.855 10.7642 15.7522 10.9164 14.4875C 11.0686 13.2279 11.1449 11.8638 11.1449 10.4005C 11.1449 8.93707 11.0686 7.57303 10.9164 6.30826C 10.7642 5.04868 10.5519 3.94589 10.2795 3.00516C 10.0068 2.06439 9.68151 1.32748 9.30335 0.794403C 8.9252 0.266541 8.51281 0 8.06593 0C 7.61403 0 7.20026 0.266541 6.82461 0.794403C 6.44896 1.32748 6.12618 2.06439 5.85599 3.00516C 5.58607 3.94589 5.37487 5.04868 5.22267 6.30826ZM 13.502 15.9143L 13.8337 15.9143C 14.0841 15.9143 14.3076 15.7732 14.504 15.4962C 14.7002 15.2192 14.8661 14.8325 15.001 14.3464C 15.1362 13.8604 15.2395 13.2802 15.3104 12.606C 15.3817 11.937 15.4173 11.2001 15.4173 10.4005C 15.4173 9.61655 15.3806 8.88486 15.3068 8.20544C 15.2331 7.52603 15.129 6.94061 14.9938 6.45456C 14.8588 5.96851 14.693 5.58179 14.4965 5.30478C 14.3001 5.0278 14.0791 4.88666 13.8337 4.88666L 13.502 4.88666L 13.502 15.9143ZM 12.0584 0.548798L 14.1946 0.548798C 14.5728 0.548798 14.9275 0.815308 15.259 1.35886C 15.5904 1.89719 15.8803 2.61841 16.1282 3.51212C 16.3762 4.41104 16.5712 5.45633 16.7137 6.64795C 16.8562 7.84476 16.9274 9.0939 16.9274 10.4005C 16.9274 11.6914 16.8573 12.9301 16.7173 14.1217C 16.5774 15.3185 16.3834 16.3638 16.1355 17.2732C 15.8875 18.1773 15.5979 18.9038 15.2662 19.4421C 14.9348 19.9804 14.5775 20.2522 14.1946 20.2522L 12.0584 20.2522L 12.0584 0.548798ZM 19.2915 4.88666L 21.0078 4.88666L 21.0078 0.548798L 17.8479 0.548798L 17.8479 20.2522L 21.0078 20.2522L 21.0078 15.9143L 19.2915 15.9143L 19.2915 12.5172L 20.9121 12.5172L 20.9121 8.17929L 19.2915 8.17929L 19.2915 4.88666ZM 23.4902 16.2802L 23.8071 16.2802C 24.1705 16.2802 24.4307 16.1129 24.5879 15.7837C 24.7451 15.4492 24.8236 14.9213 24.8236 14.1896C 24.8236 13.4579 24.7451 12.9248 24.5879 12.5956C 24.4307 12.2663 24.1705 12.0991 23.8071 12.0991L 23.4902 12.0991L 23.4902 16.2802ZM 23.4902 8.28378L 23.7554 8.28378C 24.2072 8.28378 24.4332 7.64621 24.4332 6.37622C 24.4332 5.1062 24.2072 4.4686 23.7554 4.4686L 23.4902 4.4686L 23.4902 8.28378ZM 22.0466 0.548798L 24.1975 0.548798C 24.7081 0.548798 25.096 0.982605 25.3612 1.85541C 25.6264 2.72821 25.7591 3.98251 25.7591 5.61835C 25.7591 6.61136 25.7087 7.43188 25.608 8.08517C 25.5076 8.73849 25.354 9.29251 25.1478 9.74719C 25.354 9.88831 25.5295 10.0974 25.6742 10.3848C 25.8192 10.6722 25.9369 11.0276 26.0279 11.4458C 26.1189 11.8639 26.1837 12.3342 26.2232 12.8568C 26.2625 13.3795 26.282 13.9388 26.282 14.5293C 26.282 15.4492 26.2366 16.2697 26.1459 16.9857C 26.0549 17.7017 25.9272 18.3028 25.7627 18.7888C 25.5983 19.2749 25.3982 19.6407 25.1625 19.8864C 24.9265 20.132 24.6614 20.2522 24.367 20.2522L 22.0466 20.2522L 22.0466 0.548798ZM 28.5876 11.2628L 28.5876 0.548798L 27.144 0.548798L 27.144 11.9684C 27.144 15.0363 27.343 17.2731 27.7406 18.6843C 28.1385 20.0954 28.7473 20.801 29.5674 20.801C 30.3877 20.801 30.9954 20.0954 31.3905 18.6843C 31.7857 17.2731 31.9835 15.0363 31.9835 11.9684L 31.9835 0.548798L 30.5471 0.548798L 30.5471 11.2628C 30.5471 11.8378 30.541 12.4231 30.5288 13.0241C 30.5165 13.6252 30.4784 14.174 30.4144 14.66C 30.3507 15.146 30.2536 15.5432 30.1236 15.8464C 29.9934 16.1548 29.8081 16.3063 29.5674 16.3063C 29.327 16.3063 29.1402 16.1548 29.0075 15.8464C 28.8751 15.5432 28.7779 15.146 28.7167 14.66C 28.6552 14.174 28.6185 13.6252 28.6063 13.0241C 28.594 12.4231 28.5876 11.8378 28.5876 11.2628ZM 36.1966 5.59222C 36.0394 5.13754 35.8825 4.80304 35.7253 4.58353C 35.5681 4.36923 35.4158 4.25949 35.2686 4.25949C 35.0819 4.25949 34.9297 4.41629 34.812 4.72986C 34.694 5.04346 34.635 5.45111 34.635 5.95807C 34.635 6.30298 34.6645 6.59567 34.7235 6.8204C 34.7825 7.04514 34.8599 7.24374 34.9556 7.40576C 35.0513 7.573 35.1593 7.71933 35.2798 7.83954C 35.4 7.95975 35.5191 8.09039 35.6371 8.23151C 36.1084 8.78549 36.4535 9.5329 36.6719 10.4632C 36.8903 11.3987 36.9997 12.6112 36.9997 14.1112C 36.9997 15.1198 36.9518 16.0345 36.8561 16.855C 36.7601 17.6703 36.6204 18.3759 36.4362 18.956C 36.252 19.5414 36.0261 19.9961 35.7584 20.3148C 35.4907 20.6389 35.1877 20.8009 34.8488 20.8009C 34.1464 20.8009 33.4958 20.0588 32.8968 18.5797L 33.5156 14.4509C 33.7315 15.1303 33.9452 15.6373 34.1564 15.9666C 34.3674 16.2958 34.5763 16.463 34.7825 16.463C 35.0182 16.463 35.1938 16.2697 35.3093 15.8882C 35.4245 15.5066 35.4823 15.0676 35.4823 14.5815C 35.4823 14.2837 35.4676 14.0276 35.4381 13.8081C 35.4086 13.5938 35.3596 13.39 35.2906 13.207C 35.2219 13.0241 35.1323 12.8569 35.0218 12.7001C 34.9114 12.5433 34.7775 12.3708 34.6203 12.1774C 34.4339 11.9684 34.251 11.7384 34.0716 11.4823C 33.8924 11.2314 33.7329 10.897 33.593 10.4789C 33.453 10.0608 33.34 9.5329 33.254 8.89526C 33.1681 8.26288 33.1252 7.45801 33.1252 6.48068C 33.1252 5.50336 33.1706 4.62012 33.2613 3.82571C 33.3523 3.03653 33.48 2.35709 33.6444 1.78741C 33.8089 1.22299 34.0101 0.783966 34.2485 0.470367C 34.4867 0.156799 34.753 0 35.0477 0C 35.3226 0 35.6101 0.135895 35.9095 0.402435C 36.2089 0.674194 36.4963 1.07141 36.7712 1.59406L 36.1966 5.59222ZM 40.0492 20.2522L 40.0492 4.88666L 41.2351 4.88666L 41.2351 0.548798L 37.4196 0.548798L 37.4196 4.88666L 38.6055 4.88666L 38.6055 20.2522L 40.0492 20.2522ZM 45.0359 4.88666L 43.3195 4.88666L 43.3195 8.17929L 44.9401 8.17929L 44.9401 12.5172L 43.3195 12.5172L 43.3195 15.9143L 45.0359 15.9143L 45.0359 20.2522L 41.8759 20.2522L 41.8759 0.548798L 45.0359 0.548798L 45.0359 4.88666ZM 47.7909 9.35522L 47.5184 9.35522L 47.5184 4.49469L 47.7909 4.49469C 48.0757 4.49469 48.2943 4.70377 48.4465 5.12189C 48.5987 5.53998 48.6748 6.14099 48.6748 6.92496C 48.6748 7.70889 48.5987 8.30997 48.4465 8.72809C 48.2943 9.14618 48.0757 9.35522 47.7909 9.35522ZM 48.8957 20.2522L 50.6932 20.2522L 48.9474 12.1775C 49.3451 11.8482 49.6459 11.2158 49.8498 10.2803C 50.0534 9.35001 50.1554 8.13226 50.1554 6.63754C 50.1554 5.80133 50.1174 5.01736 50.0412 4.28568C 49.9651 3.55399 49.8523 2.90588 49.7024 2.35187C 49.5526 1.79266 49.3624 1.35364 49.1316 1.0296C 48.9006 0.710785 48.6306 0.548798 48.3213 0.548798L 46.0746 0.548798L 46.0746 20.2522L 47.5184 20.2522L 47.5184 12.674L 48.8957 20.2522ZM 54.3467 5.59222C 54.1895 5.13754 54.0324 4.80304 53.8752 4.58353C 53.7181 4.36923 53.5659 4.25949 53.4186 4.25949C 53.2319 4.25949 53.0797 4.41629 52.9618 4.72986C 52.844 5.04346 52.7851 5.45111 52.7851 5.95807C 52.7851 6.30298 52.8145 6.59567 52.8735 6.8204C 52.9325 7.04514 53.0097 7.24374 53.1055 7.40576C 53.2013 7.573 53.3092 7.71933 53.4296 7.83954C 53.5499 7.95975 53.669 8.09039 53.7869 8.23151C 54.2582 8.78549 54.6033 9.5329 54.8218 10.4632C 55.0403 11.3987 55.1496 12.6112 55.1496 14.1112C 55.1496 15.1198 55.1016 16.0345 55.0059 16.855C 54.9102 17.6703 54.7702 18.3759 54.586 18.956C 54.402 19.5414 54.1761 19.9961 53.9085 20.3148C 53.6408 20.6389 53.3375 20.8009 52.9987 20.8009C 52.2964 20.8009 51.6458 20.0588 51.0467 18.5797L 51.6654 14.4509C 51.8816 15.1303 52.0952 15.6373 52.3062 15.9666C 52.5174 16.2958 52.7261 16.463 52.9325 16.463C 53.1681 16.463 53.3437 16.2697 53.4591 15.8882C 53.5744 15.5066 53.6321 15.0676 53.6321 14.5815C 53.6321 14.2837 53.6174 14.0276 53.588 13.8081C 53.5585 13.5938 53.5094 13.39 53.4407 13.207C 53.3718 13.0241 53.2822 12.8569 53.1718 12.7001C 53.0613 12.5433 52.9276 12.3708 52.7704 12.1774C 52.5837 11.9684 52.4008 11.7384 52.2216 11.4823C 52.0423 11.2314 51.8827 10.897 51.7428 10.4789C 51.6028 10.0608 51.4898 9.5329 51.404 8.89526C 51.318 8.26288 51.275 7.45801 51.275 6.48068C 51.275 5.50336 51.3204 4.62012 51.4114 3.82571C 51.5022 3.03653 51.6298 2.35709 51.7944 1.78741C 51.959 1.22299 52.1602 0.783966 52.3983 0.470367C 52.6365 0.156799 52.903 0 53.1976 0C 53.4726 0 53.7599 0.135895 54.0594 0.402435C 54.359 0.674194 54.6461 1.07141 54.9212 1.59406L 54.3467 5.59222ZM 55.4755 21.6621L 59.6376 21.6621L 59.6376 26L 55.4755 26L 55.4755 21.6621Z"/>
</defs>
</svg>

<svg width="210" height="26" viewBox="0 0 210 26" xmlns="http://www.w3.org/2000/svg" xmlns:xlink="http://www.w3.org/1999/xlink"><title>Logo (horiz)</title><desc>Created using Figma</desc><g transform="translate(8355 -457)"><path fill="#E5E5E5" d="M-8355 457h210v26h-210z"/><clipPath id="a" clip-rule="evenodd"><path d="M-8435 411h1440v1221h-1440V411z" fill="#FFF"/></clipPath><g clip-path="url(#a)"><path d="M-8435 411h1440v1221h-1440V411z" fill="#FFF"/><use xlink:href="#b" transform="matrix(3.50953 0 0 1 -8355 457)" fill="#4D4D4D"/></g></g><defs><path id="b" fill-rule="evenodd" d="M3.013 4.965c.49 0 .903.72 1.237 2.17V1.018C4.014.67 3.79.412 3.576.245 3.362.084 3.146 0 2.924 0c-.388 0-.758.256-1.112.768-.354.518-.664 1.228-.932 2.143C.612 3.827.4 4.92.24 6.18.08 7.442 0 8.833 0 10.348c0 1.516.08 2.91.243 4.192.162 1.28.377 2.388.645 3.32.267.934.577 1.655.928 2.167.35.518.718.774 1.1.774.188 0 .377-.067.568-.198.192-.13.398-.334.62-.61l.146-.184v-6.063c-.368 1.396-.783 2.09-1.245 2.09-.21 0-.407-.14-.59-.417-.18-.277-.34-.664-.474-1.15-.134-.486-.24-1.06-.316-1.725-.076-.663-.114-1.385-.114-2.17 0-.767.038-1.478.114-2.14.076-.665.18-1.235.313-1.716.133-.475.29-.857.476-1.134.183-.277.384-.418.6-.418zM6.63 12.57c-.084-.664-.126-1.386-.126-2.17 0-.783.042-1.505.126-2.168.083-.664.196-1.24.338-1.725.143-.486.31-.868.497-1.14.19-.266.39-.402.6-.402.212 0 .412.136.6.402.19.272.357.654.502 1.14.145.486.26 1.06.343 1.725.083.663.125 1.385.125 2.168 0 .784-.042 1.506-.125 2.17-.084.658-.198 1.238-.343 1.724-.145.486-.312.868-.5 1.134-.19.272-.39.408-.6.408-.212 0-.412-.136-.602-.408-.188-.266-.354-.648-.497-1.134-.142-.486-.255-1.066-.338-1.725zM5.223 6.307c-.153 1.265-.23 2.63-.23 4.092 0 1.464.077 2.828.23 4.088.152 1.264.363 2.367.633 3.308.27.94.593 1.677.97 2.205.374.534.788.8 1.24.8.447 0 .86-.266 1.237-.8.38-.527.704-1.264.976-2.204.272-.94.484-2.044.636-3.308.153-1.26.23-2.624.23-4.088 0-1.463-.077-2.827-.23-4.092-.152-1.26-.364-2.362-.636-3.303-.273-.94-.598-1.678-.977-2.21C8.925.266 8.513 0 8.066 0c-.452 0-.866.267-1.24.794-.377.533-.7 1.27-.97 2.21-.27.942-.48 2.045-.633 3.304zm8.28 9.606h.33c.25 0 .475-.14.67-.418.197-.277.363-.664.498-1.15.136-.486.24-1.066.31-1.74.072-.67.107-1.406.107-2.206 0-.783-.036-1.515-.11-2.195-.074-.68-.178-1.264-.313-1.75s-.3-.873-.498-1.15c-.196-.277-.417-.418-.662-.418h-.332v11.027zM12.057.55h2.137c.378 0 .732.265 1.064.81.33.537.62 1.258.868 2.152.248.9.443 1.944.586 3.136.142 1.197.213 2.446.213 3.752 0 1.29-.07 2.53-.21 3.722-.14 1.197-.334 2.242-.58 3.15-.25.905-.54 1.632-.87 2.17-.332.538-.69.81-1.072.81h-2.137V.55zm7.233 4.337h1.718V.55h-3.16V20.25h3.16v-4.338h-1.716v-3.397h1.62V8.18h-1.62V4.886zm4.2 11.393h.317c.364 0 .624-.167.78-.496.158-.335.237-.863.237-1.594 0-.732-.08-1.265-.236-1.594-.157-.33-.418-.497-.78-.497h-.318v4.18zm0-7.996h.265c.452 0 .678-.638.678-1.908s-.226-1.907-.678-1.907h-.265v3.814zM22.047.55h2.15c.51 0 .9.433 1.164 1.305.266.873.4 2.128.4 3.763 0 .993-.05 1.814-.152 2.467-.1.653-.254 1.208-.46 1.662.206.14.38.35.526.638.145.287.263.643.354 1.06.09.42.156.89.195 1.412.04.523.06 1.082.06 1.672 0 .92-.046 1.74-.137 2.456-.09.716-.22 1.317-.383 1.803-.165.485-.365.85-.6 1.096-.236.246-.502.366-.796.366h-2.32V.55zm6.54 10.713V.55h-1.443v11.418c0 3.068.2 5.305.597 6.716.4 1.41 1.007 2.117 1.827 2.117.82 0 1.428-.705 1.823-2.116.396-1.41.593-3.648.593-6.716V.548h-1.436v10.715c0 .575-.006 1.16-.018 1.76-.014.602-.052 1.15-.116 1.637-.063.486-.16.883-.29 1.186-.13.31-.316.46-.557.46-.24 0-.427-.15-.56-.46-.132-.303-.23-.7-.29-1.186-.062-.486-.098-1.035-.11-1.636-.013-.6-.02-1.186-.02-1.76zm7.61-5.67c-.158-.455-.315-.79-.472-1.01-.157-.214-.31-.324-.456-.324-.188 0-.34.156-.458.47-.118.313-.177.72-.177 1.228 0 .345.03.638.09.862.057.225.135.424.23.586.096.167.204.313.325.434.12.12.24.25.357.392.47.553.816 1.3 1.035 2.23.218.937.328 2.15.328 3.65 0 1.008-.048 1.923-.144 2.743-.096.815-.236 1.52-.42 2.1-.184.586-.41 1.04-.678 1.36-.267.324-.57.486-.91.486-.702 0-1.352-.74-1.95-2.22l.618-4.13c.215.68.43 1.187.64 1.517.21.33.42.496.627.496.235 0 .41-.193.526-.575.114-.38.172-.82.172-1.306 0-.298-.014-.554-.044-.774-.03-.214-.078-.418-.147-.6-.068-.184-.158-.35-.268-.508-.11-.157-.244-.33-.402-.523-.186-.21-.37-.44-.548-.695-.18-.25-.34-.585-.48-1.003-.14-.42-.252-.947-.338-1.585-.086-.632-.13-1.437-.13-2.414 0-.977.047-1.86.137-2.654.092-.79.22-1.47.384-2.04.165-.563.366-1.002.605-1.316.237-.313.503-.47.798-.47.275 0 .562.136.86.402.3.272.588.67.863 1.192l-.573 3.998zm3.852 14.66V4.886h1.185V.55H37.42v4.337h1.185v15.365h1.444zm4.986-15.366H43.32V8.18h1.62v4.337h-1.62v3.397h1.716v4.338h-3.16V.55h3.16v4.337zm2.755 4.468h-.272v-4.86h.273c.286 0 .504.21.657.627.152.418.228 1.02.228 1.803 0 .784-.076 1.385-.228 1.803-.153.418-.37.627-.656.627zm1.106 10.897h1.797l-1.746-8.074c.398-.33.7-.962.903-1.898.203-.93.305-2.148.305-3.642 0-.837-.038-1.62-.114-2.352-.075-.732-.188-1.38-.338-1.934-.15-.56-.34-.998-.57-1.322-.23-.32-.5-.48-.81-.48h-2.247V20.25h1.443v-7.578l1.378 7.578zm5.45-14.66c-.156-.454-.314-.79-.47-1.008-.158-.215-.31-.325-.457-.325-.188 0-.34.156-.458.47-.118.313-.177.72-.177 1.228 0 .345.03.638.09.862.057.225.135.424.23.586.096.167.204.313.325.434.12.12.24.25.357.392.47.553.816 1.3 1.035 2.23.218.937.328 2.15.328 3.65 0 1.008-.048 1.923-.144 2.743-.096.815-.236 1.52-.42 2.1-.184.586-.41 1.04-.678 1.36-.267.324-.57.486-.91.486-.702 0-1.352-.74-1.95-2.22l.617-4.13c.217.68.43 1.187.64 1.517.212.33.42.496.627.496.236 0 .412-.193.527-.575.114-.38.172-.82.172-1.306 0-.298-.015-.554-.044-.774-.03-.214-.08-.418-.147-.6-.068-.184-.158-.35-.268-.508-.11-.157-.244-.33-.402-.523-.186-.21-.37-.44-.548-.695-.18-.25-.34-.585-.48-1.003-.14-.42-.252-.947-.338-1.585-.086-.632-.13-1.437-.13-2.414 0-.977.046-1.86.137-2.654.092-.79.22-1.47.384-2.04.165-.563.366-1.002.604-1.316.238-.313.505-.47.8-.47.275 0 .562.136.86.402.3.272.588.67.863 1.192l-.573 3.998zm1.13 16.07h4.162V26h-4.163v-4.338z"/></defs></svg>
